X: 42138
T: Wassalou River
R: reel
M: 4/4
K: Adorian
M:6/4
|:eaed cA~A2 (cd)(de)|eaed cAAg aged|eaed cA~A2 cde2|E2DE ~G2Ac dcA2:|
|:E2DE ~G2Ac dcAG|e2ge ~e2ge dcd2|E2DE ~G2Ac dcA2|aged cded dcAG:|

